world_stage/static/flags/BEL/square.svg

<svg height="600" viewBox="0 0 600 600" width="600" xmlns="http://www.w3.org/2000/svg"><g transform="matrix(1.3333333 0 0 -2 0 600.00001)"><path d="m0 0h450v300h-450z" fill="#ed2939"/><path d="m0 0h300v300h-300z" fill="#fae042"/><path d="m0 0h150v300h-150z"/></g></svg>

<?xml version="1.0" encoding="UTF-8" standalone="no"?>
<svg
   height="600"
   viewBox="0 0 600 600"
   width="600"
   version="1.1"
   id="svg3"
   sodipodi:docname="rect copy.svg"
   inkscape:version="1.4 (e7c3feb1, 2024-10-09)"
   xmlns:inkscape="http://www.inkscape.org/namespaces/inkscape"
   xmlns:sodipodi="http://sodipodi.sourceforge.net/DTD/sodipodi-0.dtd"
   xmlns="http://www.w3.org/2000/svg"
   xmlns:svg="http://www.w3.org/2000/svg">
  <defs
     id="defs3" />
  <sodipodi:namedview
     id="namedview3"
     pagecolor="#ffffff"
     bordercolor="#000000"
     borderopacity="0.25"
     inkscape:showpageshadow="2"
     inkscape:pageopacity="0.0"
     inkscape:pagecheckerboard="0"
     inkscape:deskcolor="#d1d1d1"
     inkscape:current-layer="svg3" />
  <g
     transform="matrix(1.3333333,0,0,-2,0,600.00001)"
     id="g3">
    <path
       d="M 0,0 H 450 V 300 H 0 Z"
       fill="#ed2939"
       id="path1" />
    <path
       d="M 0,0 H 300 V 300 H 0 Z"
       fill="#fae042"
       id="path2" />
    <path
       d="M 0,0 H 150 V 300 H 0 Z"
       id="path3" />
  </g>
</svg>
